X: 483
T: Peek-A-Boo
S: Viola Ruth "Pioneer Western Folk Tunes" 1948 p48 #3
R: waltz
Z: 2019 John Chambers <jc:trillian.mit.edu>
M: 3/4
L: 1/8
K: G
%%text Used for Waltz Quadrille
(Bc) |\
(d2 b2 a2) | (g2 f2 e2) | (d2 B2 e2) | d4 (Bc) | d2 b2 a2 | (g2 f2 g2) | a3 gab |
a4 (Bc) | (d2 b2 a2) | (g2 f2 e2) | (d2 B2 e2) | d4 Md-Md | (e2 c'2 b2) | a2 e2 f2 | g6- | g4 || (Bc) |
(d4 g2) | (d4 ^cd) | (e4 a2) | (e4 g2) | (f4 Mf2) | (e4 Me2) | d6- | d4 (Bc) |
(d4 g2) | (d4 Md2) | (e4 c'2) | (e4 g2) | (f3 efg) | (b4 a2) | g6- | g4 |]
